X:69
M:2/4
L:1/8
K:D
| FA Ad | Bd AF | GB AF/A/ | BE G/F/E/F/ | 
| FA A/B/d/e/ | fd ed | Bd AF/A/ | BE G/F/E/F/ | 

